dist/img/svg/i-lang.svg

<svg width="24" height="24" viewBox="0 0 24 24" fill="none" xmlns="http://www.w3.org/2000/svg">
    <path d="M12 2C6.489 2 2 6.489 2 12C2 17.511 6.489 22 12 22C17.511 22 22 17.511 22 12C22 6.489 17.511 2 12 2ZM12 4C12.2483 4 12.5204 4.10164 12.8672 4.43164C13.214 4.76164 13.5905 5.31488 13.9141 6.04297C14.1604 6.59722 14.3619 7.27368 14.5352 8H9.46484C9.63808 7.27368 9.8396 6.59722 10.0859 6.04297C10.4095 5.31488 10.7861 4.76164 11.1328 4.43164C11.4796 4.10164 11.7517 4 12 4ZM8.45117 4.83398C8.38604 4.96489 8.31884 5.09315 8.25781 5.23047C7.8961 6.04433 7.61534 6.98621 7.4043 8H5.07227C5.85871 6.63718 7.03488 5.53436 8.45117 4.83398ZM15.5488 4.83398C16.9651 5.53436 18.1413 6.63718 18.9277 8H16.5957C16.3847 6.98621 16.1039 6.04433 15.7422 5.23047C15.6812 5.09315 15.614 4.96489 15.5488 4.83398ZM4.26172 10H7.09766C7.03627 10.6469 7 11.3136 7 12C7 12.6864 7.03627 13.3531 7.09766 14H4.26172C4.09755 13.3598 4 12.6926 4 12C4 11.3074 4.09755 10.6402 4.26172 10ZM9.11719 10H14.8828C14.9524 10.6426 15 11.3066 15 12C15 12.6934 14.9524 13.3574 14.8828 14H9.11719C9.04758 13.3574 9 12.6934 9 12C9 11.3066 9.04758 10.6426 9.11719 10ZM16.9023 10H19.7383C19.9024 10.6402 20 11.3074 20 12C20 12.6926 19.9024 13.3598 19.7383 14H16.9023C16.9637 13.3531 17 12.6864 17 12C17 11.3136 16.9637 10.6469 16.9023 10ZM5.07227 16H7.4043C7.61534 17.0138 7.8961 17.9557 8.25781 18.7695C8.31884 18.9068 8.38604 19.0351 8.45117 19.166C7.03488 18.4656 5.85871 17.3628 5.07227 16ZM9.46484 16H14.5352C14.3619 16.7263 14.1604 17.4028 13.9141 17.957C13.5905 18.6851 13.2139 19.2384 12.8672 19.5684C12.5204 19.8984 12.2483 20 12 20C11.7517 20 11.4796 19.8984 11.1328 19.5684C10.786 19.2384 10.4095 18.6851 10.0859 17.957C9.8396 17.4028 9.63808 16.7263 9.46484 16ZM16.5957 16H18.9277C18.1413 17.3628 16.9651 18.4656 15.5488 19.166C15.614 19.0351 15.6812 18.9068 15.7422 18.7695C16.1039 17.9557 16.3847 17.0138 16.5957 16Z" fill="white"/>
</svg>

<svg width="24" height="24" viewBox="0 0 24 24" fill="none" xmlns="http://www.w3.org/2000/svg"><path d="M12 2C6.489 2 2 6.489 2 12s4.489 10 10 10 10-4.489 10-10S17.511 2 12 2zm0 2c.248 0 .52.102.867.432s.723.883 1.047 1.611c.246.554.448 1.23.621 1.957h-5.07c.173-.726.375-1.403.62-1.957.324-.728.701-1.281 1.048-1.611.347-.33.619-.432.867-.432zm-3.549.834c-.065.13-.132.26-.193.396-.362.814-.643 1.756-.854 2.77H5.072a7.99 7.99 0 013.38-3.166zm7.098 0A7.99 7.99 0 0118.928 8h-2.332c-.211-1.014-.492-1.956-.854-2.77-.06-.137-.128-.265-.193-.396zM4.262 10h2.836A21.14 21.14 0 007 12c0 .686.036 1.353.098 2H4.262A8.028 8.028 0 014 12c0-.693.098-1.36.262-2zm4.855 0h5.766c.07.643.117 1.307.117 2 0 .693-.048 1.357-.117 2H9.117A18.472 18.472 0 019 12c0-.693.048-1.357.117-2zm7.785 0h2.836c.164.64.262 1.307.262 2 0 .693-.098 1.36-.262 2h-2.836c.062-.647.098-1.314.098-2 0-.686-.036-1.353-.098-2zm-11.83 6h2.332c.211 1.014.492 1.956.854 2.77.06.137.128.265.193.396A7.99 7.99 0 015.072 16zm4.393 0h5.07c-.173.726-.375 1.403-.62 1.957-.324.728-.701 1.281-1.048 1.611-.347.33-.619.432-.867.432s-.52-.102-.867-.432-.723-.883-1.047-1.611c-.246-.554-.448-1.23-.621-1.957zm7.13 0h2.333a7.99 7.99 0 01-3.38 3.166c.066-.13.133-.26.194-.396.362-.814.643-1.756.854-2.77z" fill="#fff"/></svg>
